public/icons/list-check.svg

<svg width="20" height="20" viewBox="0 0 20 20" fill="none" xmlns="http://www.w3.org/2000/svg">
<rect width="20" height="20" rx="10" fill="white"/>
<path d="M14.8224 6.43858L9.35058 14.6444C9.22008 14.8358 9.02549 14.9611 8.81053 14.9924C8.59557 15.0236 8.37827 14.9581 8.20745 14.8105L4.30003 11.3582C3.95523 11.0533 3.8994 10.4972 4.17533 10.1162C4.45126 9.73512 4.95447 9.67342 5.29927 9.97835L8.55759 12.8591L13.5354 5.39352C13.6986 5.12284 13.9832 4.97319 14.2763 5.00398C14.5693 5.03477 14.8233 5.24102 14.9374 5.54085C15.0516 5.84068 15.0074 6.18556 14.8224 6.43858Z" fill="#093160"/>
</svg>

<svg xmlns="http://www.w3.org/2000/svg" width="20" height="20" fill="none"><rect width="20" height="20" fill="#fff" rx="10"/><path fill="#093160" d="m14.822 6.439-5.471 8.205a.8.8 0 0 1-.54.348.75.75 0 0 1-.604-.182L4.3 11.359c-.345-.305-.4-.86-.125-1.242.276-.38.78-.443 1.124-.138l3.259 2.881 4.977-7.465a.78.78 0 0 1 .741-.39c.293.03.547.237.661.537.115.3.07.645-.115.898"/></svg>
